Newaita/actions/16/view-certificate-sign.svg

<svg height="16" viewBox="0 0 16 16" width="16" xmlns="http://www.w3.org/2000/svg"><g fill="#424242"><path d="m2.644531 2.769531c-.730469 0-1.320312.589844-1.320312 1.324219v7.9375c0 .734375.589843 1.324219 1.320312 1.324219h5.382813c-.058594-.097657-.089844-.210938-.089844-.332031v-.992188h-4.628906c-.367188 0-.664063-.292969-.664063-.660156v-6.617188c0-.363281.296875-.660156.664063-.660156h9.261718c.363282 0 .660157.296875.660157.660156v1.324219h1.324219v-1.984375c0-.734375-.589844-1.324219-1.324219-1.324219zm0 0"/><path d="m5.925781 5.746094c-.71875 0-1.296875.59375-1.296875 1.324218v.992188c-.363281 0-.660156.296875-.660156.664062v.992188c0 .363281.296875.660156.660156.660156h2.648438c.367187 0 .660156-.296875.660156-.660156v-.992188c0-.367187-.292969-.664062-.660156-.664062v-.992188c0-.730468-.578125-1.324218-1.296875-1.324218zm.027344.664062c.367187 0 .660156.292969.660156.660156v.992188h-1.320312v-.992188c0-.367187.292969-.660156.660156-.660156zm0 0"/><path d="m8.105469 5.417969h3.636719c.089843 0 .164062.074219.164062.164062v.332031c0 .089844-.074219.164063-.164062.164063h-3.636719c-.09375 0-.167969-.074219-.167969-.164063v-.332031c0-.089843.074219-.164062.167969-.164062zm0 0"/><path d="m9.425781 7.402344h1.65625c.089844 0 .164063.074218.164063.164062v.332032c0 .089843-.074219.164062-.164063.164062h-1.65625c-.089843 0-.164062-.074219-.164062-.164062v-.332032c0-.089844.074219-.164062.164062-.164062zm0 0"/><path d="m13.894531 7.871094c-.261719-.261719-.679687-.261719-.9375 0l-2.507812 2.507812c-.027344.015625-.050781.03125-.074219.054688l1.421875 1.421875c.023437-.023438.039063-.046875.054687-.074219l2.507813-2.507812c.261719-.261719.261719-.675782 0-.9375zm-3.984375 3.03125-.234375.234375c-.03125.027343-.058593.066406-.074219.105469l-.703124 1.636718c-.121094.285156.167968.574219.453124.453125l1.636719-.703125c.039063-.019531.074219-.042968.105469-.074218l.234375-.234376zm0 0"/></g></svg>

<svg xmlns="http://www.w3.org/2000/svg" xmlns:xlink="http://www.w3.org/1999/xlink" width="16px" height="16px" viewBox="0 0 16 16" version="1.1">
<g id="surface1">
     <defs>
  <style id="current-color-scheme" type="text/css">
   .ColorScheme-Text { color:#424242; } .ColorScheme-Highlight { color:#eeeeee; }
  </style>
 </defs>
<path style="fill:currentColor" class="ColorScheme-Text" d="M 2.644531 2.769531 C 1.914062 2.769531 1.324219 3.359375 1.324219 4.09375 L 1.324219 12.03125 C 1.324219 12.765625 1.914062 13.355469 2.644531 13.355469 L 8.027344 13.355469 C 7.96875 13.257812 7.9375 13.144531 7.9375 13.023438 L 7.9375 12.03125 L 3.308594 12.03125 C 2.941406 12.03125 2.644531 11.738281 2.644531 11.371094 L 2.644531 4.753906 C 2.644531 4.390625 2.941406 4.09375 3.308594 4.09375 L 12.570312 4.09375 C 12.933594 4.09375 13.230469 4.390625 13.230469 4.753906 L 13.230469 6.078125 L 14.554688 6.078125 L 14.554688 4.09375 C 14.554688 3.359375 13.964844 2.769531 13.230469 2.769531 Z M 2.644531 2.769531 "/>
     <defs>
  <style id="current-color-scheme" type="text/css">
   .ColorScheme-Text { color:#424242; } .ColorScheme-Highlight { color:#eeeeee; }
  </style>
 </defs>
<path style="fill:currentColor" class="ColorScheme-Text" d="M 5.925781 5.746094 C 5.207031 5.746094 4.628906 6.339844 4.628906 7.070312 L 4.628906 8.0625 C 4.265625 8.0625 3.96875 8.359375 3.96875 8.726562 L 3.96875 9.71875 C 3.96875 10.082031 4.265625 10.378906 4.628906 10.378906 L 7.277344 10.378906 C 7.644531 10.378906 7.9375 10.082031 7.9375 9.71875 L 7.9375 8.726562 C 7.9375 8.359375 7.644531 8.0625 7.277344 8.0625 L 7.277344 7.070312 C 7.277344 6.339844 6.699219 5.746094 5.980469 5.746094 Z M 5.953125 6.410156 C 6.320312 6.410156 6.613281 6.703125 6.613281 7.070312 L 6.613281 8.0625 L 5.292969 8.0625 L 5.292969 7.070312 C 5.292969 6.703125 5.585938 6.410156 5.953125 6.410156 Z M 5.953125 6.410156 "/>
     <defs>
  <style id="current-color-scheme" type="text/css">
   .ColorScheme-Text { color:#424242; } .ColorScheme-Highlight { color:#eeeeee; }
  </style>
 </defs>
<path style="fill:currentColor" class="ColorScheme-Text" d="M 8.105469 5.417969 L 11.742188 5.417969 C 11.832031 5.417969 11.90625 5.492188 11.90625 5.582031 L 11.90625 5.914062 C 11.90625 6.003906 11.832031 6.078125 11.742188 6.078125 L 8.105469 6.078125 C 8.011719 6.078125 7.9375 6.003906 7.9375 5.914062 L 7.9375 5.582031 C 7.9375 5.492188 8.011719 5.417969 8.105469 5.417969 Z M 8.105469 5.417969 "/>
     <defs>
  <style id="current-color-scheme" type="text/css">
   .ColorScheme-Text { color:#424242; } .ColorScheme-Highlight { color:#eeeeee; }
  </style>
 </defs>
<path style="fill:currentColor" class="ColorScheme-Text" d="M 9.425781 7.402344 L 11.082031 7.402344 C 11.171875 7.402344 11.246094 7.476562 11.246094 7.566406 L 11.246094 7.898438 C 11.246094 7.988281 11.171875 8.0625 11.082031 8.0625 L 9.425781 8.0625 C 9.335938 8.0625 9.261719 7.988281 9.261719 7.898438 L 9.261719 7.566406 C 9.261719 7.476562 9.335938 7.402344 9.425781 7.402344 Z M 9.425781 7.402344 "/>
     <defs>
  <style id="current-color-scheme" type="text/css">
   .ColorScheme-Text { color:#424242; } .ColorScheme-Highlight { color:#eeeeee; }
  </style>
 </defs>
<path style="fill:currentColor" class="ColorScheme-Text" d="M 13.894531 7.871094 C 13.632812 7.609375 13.214844 7.609375 12.957031 7.871094 L 10.449219 10.378906 C 10.421875 10.394531 10.398438 10.410156 10.375 10.433594 L 11.796875 11.855469 C 11.820312 11.832031 11.835938 11.808594 11.851562 11.78125 L 14.359375 9.273438 C 14.621094 9.011719 14.621094 8.597656 14.359375 8.335938 Z M 9.910156 10.902344 L 9.675781 11.136719 C 9.644531 11.164062 9.617188 11.203125 9.601562 11.242188 L 8.898438 12.878906 C 8.777344 13.164062 9.066406 13.453125 9.351562 13.332031 L 10.988281 12.628906 C 11.027344 12.609375 11.0625 12.585938 11.09375 12.554688 L 11.328125 12.320312 Z M 9.910156 10.902344 "/>
</g>
</svg>
